resources/icons/scopy-default/icons/logo.svg

<?xml version="1.0" encoding="UTF-8"?>
<svg width="77px" height="15px" viewBox="0 0 77 15" version="1.1" xmlns="http://www.w3.org/2000/svg" xmlns:xlink="http://www.w3.org/1999/xlink">
    <title>logo</title>
    <g id="logo" stroke="none" stroke-width="1" fill="none" fill-rule="evenodd">
        <path d="M37.5,15 C33.3578644,15 30,11.6421356 30,7.5 C30,3.35786438 33.3578644,0 37.5,0 C41.6421356,0 45,3.35786438 45,7.5 C44.9972421,11.6409927 41.6409927,14.9972421 37.5,15 L37.5,15 Z M37.5,3 C35.0147186,3 33,5.01471863 33,7.5 C33,9.98528137 35.0147186,12 37.5,12 C39.9852814,12 42,9.98528137 42,7.5 C41.9972444,5.01586091 39.9841391,3.00275556 37.5,3 L37.5,3 Z M30,15 L23.5,15 C19.3578644,15 16,11.6421356 16,7.5 C16,3.35786438 19.3578644,0 23.5,0 L30,0 L30,3 L23.5,3 C21.0147186,3 19,5.01471863 19,7.5 C19,9.98528137 21.0147186,12 23.5,12 L30,12 L30,15 L30,15 Z M74,0 L74,4.5 C74,6.98528137 71.9852814,9 69.5,9 C67.0147186,9 65,6.98528137 65,4.5 L65,0 L62,0 L62,4.5 C62.0043923,8.06248226 64.5104237,11.131953 68,11.849 L68,15 L71,15 L71,11.849 C74.4895763,11.131953 76.9956077,8.06248226 77,4.5 L77,0 L74,0 L74,0 Z M1,15 L1,12 L10.5,12 C11.3284271,12 12,11.3284271 12,10.5 C12,9.67157288 11.3284271,9 10.5,9 L4.5,9 C2.01471863,9 0,6.98528137 0,4.5 C0,2.01471863 2.01471863,0 4.5,0 L14,0 L14,3 L4.5,3 C3.67157288,3 3,3.67157288 3,4.5 C3,5.32842712 3.67157288,6 4.5,6 L10.5,6 C12.9852814,6 15,8.01471863 15,10.5 C15,12.9852814 12.9852814,15 10.5,15 L1,15 L1,15 Z M49,15 L46,15 L46,0 L55,0 C58.3137085,0 61,2.6862915 61,6 C61,9.3137085 58.3137085,12 55,12 L52,12 L52,9 L55,9 C56.6568542,9 58,7.65685425 58,6 C58,4.34314575 56.6568542,3 55,3 L49,3 L49,15 L49,15 Z" fill="#FFFFFF"></path>
    </g>
</svg>

<?xml version="1.0" encoding="UTF-8"?>
<svg width="77px" height="15px" version="1.1" viewBox="0 0 77 15" xmlns="http://www.w3.org/2000/svg">
 <g fill="#fff" fill-rule="evenodd">
  <path d="m37.5 15c-4.1421 0-7.5-3.3579-7.5-7.5s3.3579-7.5 7.5-7.5 7.5 3.3579 7.5 7.5c-0.0027579 4.141-3.359 7.4972-7.5 7.5zm0-12c-2.4853 0-4.5 2.0147-4.5 4.5s2.0147 4.5 4.5 4.5 4.5-2.0147 4.5-4.5c-0.0027556-2.4841-2.0159-4.4972-4.5-4.5zm-7.5 12h-6.5c-4.1421 0-7.5-3.3579-7.5-7.5s3.3579-7.5 7.5-7.5h6.5v3h-6.5c-2.4853 0-4.5 2.0147-4.5 4.5s2.0147 4.5 4.5 4.5h6.5v3zm44-15v4.5c0 2.4853-2.0147 4.5-4.5 4.5s-4.5-2.0147-4.5-4.5v-4.5h-3v4.5c0.0043923 3.5625 2.5104 6.632 6 7.349v3.151h3v-3.151c3.4896-0.71705 5.9956-3.7865 6-7.349v-4.5h-3zm-73 15v-3h9.5c0.82843 0 1.5-0.67157 1.5-1.5s-0.67157-1.5-1.5-1.5h-6c-2.4853 0-4.5-2.0147-4.5-4.5s2.0147-4.5 4.5-4.5h9.5v3h-9.5c-0.82843 0-1.5 0.67157-1.5 1.5s0.67157 1.5 1.5 1.5h6c2.4853 0 4.5 2.0147 4.5 4.5s-2.0147 4.5-4.5 4.5h-9.5zm48 0h-3v-15h9c3.3137 0 6 2.6863 6 6s-2.6863 6-6 6h-3v-3h3c1.6569 0 3-1.3431 3-3s-1.3431-3-3-3h-6v12z"/>
 </g>
</svg>
